src/assets/SEE_ALL.svg

<svg width="87" height="218" viewBox="0 0 87 218" fill="none" xmlns="http://www.w3.org/2000/svg">
<rect x="0.871883" y="1.14924" width="56.5259" height="206.391" rx="19" transform="matrix(0.987761 0.155977 -0.115877 0.993264 26.9346 1.04707)" fill="#D3A7E0" stroke="#373737" stroke-width="2"/>
<path d="M36.9224 197.057L31.9076 189.848C31.1776 188.798 31.9114 187.258 33.0714 187.409L43.1934 188.716C44.6677 188.908 45.994 187.686 46.1544 185.988C46.3148 184.291 45.2507 182.761 43.7771 182.571L33.6558 181.264C32.4958 181.114 32.0687 179.425 32.978 178.587L39.224 172.833C37.3672 170.164 33.9874 169.727 31.6739 171.859L24.1883 178.755C21.8756 180.885 21.5051 184.777 23.3619 187.446L29.3712 196.085C31.2279 198.754 34.6085 199.192 36.922 197.06L36.9224 197.057Z" fill="#F6E9FA"/>
<path d="M51.2257 31.4798C51.8802 26.3127 54.5128 24.2551 59.1236 25.3068C63.6531 26.34 65.5906 29.4401 64.9361 34.6071L63.6598 44.6829L57.5663 43.2929L58.8426 33.2172C58.9735 32.1838 58.8053 31.6138 58.3382 31.5072C57.7898 31.3821 57.4501 31.8363 57.3192 32.8697L56.7301 37.5201C56.0756 42.6871 53.4836 44.754 48.9541 43.7208C44.3434 42.6691 42.3653 39.5597 43.0198 34.3927L44.2961 24.317L50.3896 25.7069L49.1133 35.7826C48.9824 36.816 49.1911 37.3953 49.7395 37.5204C50.2067 37.627 50.5058 37.1635 50.6367 36.1301L51.2257 31.4798ZM60.9386 66.165L54.8451 64.775L56.0233 55.4743L54.4999 55.1269L53.5181 62.8774L47.4246 61.4875L48.4064 53.7369L46.883 53.3894L45.7049 62.6901L39.6114 61.3002L41.5749 45.7991L62.9022 50.6638L60.9386 66.165ZM58.3981 86.2209L52.3046 84.831L53.4828 75.5303L51.9594 75.1828L50.9776 82.9334L44.8841 81.5435L45.8659 73.7929L44.3425 73.4454L43.1644 82.7461L37.0709 81.3562L39.0345 65.855L60.3617 70.7198L58.3981 86.2209ZM48.1167 115.418L42.595 111.989L42.0609 116.206L48.1167 115.418ZM36.7823 108.383L33.8749 106.587L34.6603 100.387L55.0058 113.002L54.024 120.753L31.715 123.638L32.5005 117.438L35.6866 117.032L36.7823 108.383ZM36.6739 133.985L35.8885 140.186L29.795 138.796L31.3658 126.395L52.6931 131.26L51.9076 137.46L36.6739 133.985ZM34.5929 150.414L33.8075 156.615L27.714 155.225L29.2848 142.824L50.612 147.689L49.8266 153.889L34.5929 150.414Z" fill="#F6E9FA"/>
</svg>

<svg width="87" height="218" fill="none" xmlns="http://www.w3.org/2000/svg"><rect x=".872" y="1.149" width="56.526" height="206.391" rx="19" transform="matrix(.98776 .15598 -.11588 .99326 26.935 1.047)" fill="#D3A7E0" stroke="#373737" stroke-width="2"/><path d="m36.922 197.057-5.014-7.209c-.73-1.05.003-2.59 1.163-2.439l10.122 1.307c1.475.192 2.801-1.03 2.961-2.728.16-1.697-.903-3.227-2.377-3.417l-10.121-1.307c-1.16-.15-1.587-1.839-.678-2.677l6.246-5.754c-1.857-2.669-5.237-3.106-7.55-.974l-7.486 6.896c-2.312 2.13-2.683 6.022-.826 8.691l6.01 8.639c1.856 2.669 5.236 3.107 7.55.975v-.003zM51.226 31.48c.654-5.167 3.287-7.225 7.898-6.173 4.53 1.033 6.467 4.133 5.812 9.3L63.66 44.683l-6.094-1.39 1.277-10.076c.13-1.033-.038-1.603-.505-1.71-.548-.125-.888.33-1.019 1.363l-.589 4.65c-.654 5.167-3.246 7.234-7.776 6.2-4.61-1.05-6.589-4.16-5.934-9.327l1.276-10.076 6.094 1.39-1.277 10.076c-.13 1.033.078 1.612.627 1.737.467.107.766-.357.897-1.39l.589-4.65zm9.713 34.685-6.094-1.39 1.178-9.3-1.523-.348-.982 7.75-6.093-1.39.981-7.75-1.523-.348-1.178 9.301-6.094-1.39 1.964-15.5 21.327 4.864-1.963 15.501zm-2.54 20.056-6.094-1.39 1.178-9.3-1.524-.348-.981 7.75-6.094-1.39.982-7.75-1.523-.348-1.179 9.301-6.093-1.39 1.964-15.501 21.327 4.865-1.964 15.5zm-10.282 29.197-5.522-3.429-.534 4.217 6.056-.788zm-11.335-7.035-2.907-1.796.785-6.2 20.346 12.615-.982 7.751-22.309 2.885.786-6.2 3.186-.406 1.095-8.649zm-.108 25.602-.785 6.201-6.094-1.39 1.57-12.401 21.328 4.865-.785 6.2-15.234-3.475zm-2.081 16.429-.786 6.201-6.093-1.39 1.57-12.401 21.328 4.865-.785 6.2-15.234-3.475z" fill="#F6E9FA"/></svg>
